X: 021112
T: Ballydesmond #3
S: "Johnny O'Leary of Sliabh Luachra" (#59)
Z: B.Black
L: 1/8
M: 2/4
Q: 290
R: polka
K: Ador
B|: c2 Bc/B/|AB/A/ G>A|B/c/d/B/ ed|g2 fg|
ea gg/e/|dB GA/B/|ce dB|A2 A2 :|
ea ag/e/|dg gf/g/|ea ag/a/|g2 fg|
ea g/a/g/e/|dB GA/B/|ce dB|A2 A2 :|
